dapp/src/images/zAssets-panther-logo.svg

<svg fill="none" height="61" viewBox="0 0 66 61" width="66" xmlns="http://www.w3.org/2000/svg" xmlns:xlink="http://www.w3.org/1999/xlink"><linearGradient id="a"><stop offset="0" stop-color="#ffdfbd"/><stop offset="1" stop-color="#d0a7a8"/></linearGradient><linearGradient id="b" gradientUnits="userSpaceOnUse" x1="35.9135" x2="34.4505" xlink:href="#a" y1="3.57714" y2="60.0636"/><linearGradient id="c"><stop offset="0" stop-color="#717b90"/><stop offset=".854167" stop-color="#5f6779"/></linearGradient><linearGradient id="d" gradientUnits="userSpaceOnUse" x1="36.9506" x2="37.6539" xlink:href="#c" y1="10.6904" y2="53.0135"/><linearGradient id="e" gradientUnits="userSpaceOnUse" x1="38" x2="38.8043" xlink:href="#c" y1="10" y2="53.9975"/><linearGradient id="f" gradientUnits="userSpaceOnUse" x1="38" x2="38" y1="10" y2="54"><stop offset="0" stop-color="#fff"/><stop offset="1" stop-color="#fff" stop-opacity="0"/></linearGradient><linearGradient id="g" gradientUnits="userSpaceOnUse" x1="27.1172" x2="2.08792" xlink:href="#a" y1="2.60547" y2="3.71209"/><linearGradient id="h" gradientUnits="userSpaceOnUse" x1="14.5829" x2="14.9559" xlink:href="#c" y1="3.92188" y2="26.3689"/><mask id="i" fill="#000" height="29" maskUnits="userSpaceOnUse" width="29" x=".117188" y=".605469"><path d="m.117188.605469h29v29h-29z" fill="#fff"/><path d="m2.41422 18.1796c-.00003 0-.00004 0-.00004 0 1.6749 6.7182 8.47932 10.8068 15.19832 9.1315 6.7162-1.6749 10.8047-8.4798 9.1291-15.1974-1.6741-6.71898-8.4786-10.80785-15.1955-9.13298-6.71844 1.67487-10.806744 8.48038-9.13178 15.19888.00001 0-.00005 0-.00008 0s-.00001 0-.00002 0z" fill="#000"/></mask><circle cx="36.9474" cy="31.8527" fill="#141522" r="26.9715" stroke="url(#b)" stroke-width="2.60808"/><circle cx="36.9506" cy="31.852" fill="url(#d)" r="21.1615"/><circle cx="36.9506" cy="31.852" fill="#131621" r="21.1615"/><path d="m18.0069 21.1626c.1008-.0377.2017-.066.2475-.0754 3.1632-.7071 9.1594-1.8761 12.7718-1.499.2934.0283.5593-.1792.6051-.4714.1284-.8391.4676-2.1684.6693-2.357.1375-.1226.3759-.3865.9352 0 .4768.33 2.558 2.4418 3.1907 3.0924.1191.1225.275.1791.44.1602.4676-.0471 1.4853-.1131 2.1913.0283.9352.1886 7.3165 3.856 8.6368 5.4022.9993 1.1785 1.0177 2.1213.9718 2.5172-.0183.132.0092.264.0826.3772l2.9522 4.827c.0825.132.11.2923.0642.4432-.0917.3771-.3301 1.0747-.8618 1.5273-.1284.1037-.2109.264-.2201.4337-.0183.5091-.0917 1.5556-.3667 1.8478-.2934.3017-1.2469 1.1691-1.6779 1.5556-.1283.1132-.1925.2829-.1833.4526.0275.6222.055 2.1307-.3943 2.4324-.5593.3865-3.7499.5751-4.1258 0l-3.2365-3.2998c-1.2011-.7259-2.5947-1.1408-4.08-1.1408-2.4205 0-4.5934 1.0937-6.0696 2.8284-.2017.198-.3759.4148-.5042.6411-.0092.0094-.0092.0189-.0184.0283-.9352 1.3576-1.4853 3.0075-1.4853 4.7893 0 4.582 3.6124 8.2966 8.0683 8.2966 11.8183 0 21.3902-9.8522 21.3902-21.9953s-9.5719-22.0047-21.381-22.0047c-7.9858 0-14.9447 4.4971-18.6121 11.1626-.0092 0-.0092 0 0 0z" fill="url(#e)"/><path d="m18.0069 21.1626c.1008-.0377.2017-.066.2475-.0754 3.1632-.7071 9.1594-1.8761 12.7718-1.499.2934.0283.5593-.1792.6051-.4714.1284-.8391.4676-2.1684.6693-2.357.1375-.1226.3759-.3865.9352 0 .4768.33 2.558 2.4418 3.1907 3.0924.1191.1225.275.1791.44.1602.4676-.0471 1.4853-.1131 2.1913.0283.9352.1886 7.3165 3.856 8.6368 5.4022.9993 1.1785 1.0177 2.1213.9718 2.5172-.0183.132.0092.264.0826.3772l2.9522 4.827c.0825.132.11.2923.0642.4432-.0917.3771-.3301 1.0747-.8618 1.5273-.1284.1037-.2109.264-.2201.4337-.0183.5091-.0917 1.5556-.3667 1.8478-.2934.3017-1.2469 1.1691-1.6779 1.5556-.1283.1132-.1925.2829-.1833.4526.0275.6222.055 2.1307-.3943 2.4324-.5593.3865-3.7499.5751-4.1258 0l-3.2365-3.2998c-1.2011-.7259-2.5947-1.1408-4.08-1.1408-2.4205 0-4.5934 1.0937-6.0696 2.8284-.2017.198-.3759.4148-.5042.6411-.0092.0094-.0092.0189-.0184.0283-.9352 1.3576-1.4853 3.0075-1.4853 4.7893 0 4.582 3.6124 8.2966 8.0683 8.2966 11.8183 0 21.3902-9.8522 21.3902-21.9953s-9.5719-22.0047-21.381-22.0047c-7.9858 0-14.9447 4.4971-18.6121 11.1626-.0092 0-.0092 0 0 0z" fill="url(#f)" fill-opacity=".2"/><path d="m2.41422 18.1796c-.00003 0-.00004 0-.00004 0 1.6749 6.7182 8.47932 10.8068 15.19832 9.1315 6.7162-1.6749 10.8047-8.4798 9.1291-15.1974-1.6741-6.71898-8.4786-10.80785-15.1955-9.13298-6.71844 1.67487-10.806744 8.48038-9.13178 15.19888.00001 0-.00005 0-.00008 0s-.00001 0-.00002 0z" fill="#121320"/><path d="m17.6125 27.3111.4125 1.6542zm9.1291-15.1974-1.6542.4126-.0001-.0004zm-15.1955-9.13298.4125 1.65426-.0001.00003zm-9.13178 15.19888 1.65427-.4125zm-.00008 0-1.20555 1.2056zm0 0-1.20556 1.2056zm-.00006 0 1.65428-.4124zm1.65428-.4124c1.44709 5.8045 7.32614 9.3371 13.13154 7.8896l.825 3.3085c-7.6326 1.9031-15.3624-2.7413-17.265097-10.3732zm13.13154 7.8896c5.8024-1.447 9.3351-7.3265 7.8874-13.1305l3.3084-.8253c1.9035 7.6313-2.7409 15.3616-10.3708 17.2643zm7.8873-13.1309c-1.4465-5.8053-7.3256-9.33792-13.1287-7.89092l-.825-3.30852c7.6308-1.902741 15.3606 2.74238 17.2624 10.37494zm-13.1288-7.89089c-5.80456 1.44704-9.33714 7.32709-7.88991 13.13209l-3.308554.8249c-1.902676-7.6319 2.741344-15.36287 10.373664-17.26556zm-10.74981 14.75019h-.00001l2.41112-2.4112v.0001zm2.8599-1.6181c.20469.8211-.22038 1.5437-.78352 1.8783-.57366.3408-1.44952.3666-2.07638-.2602l2.41111-2.4111c-.62683-.6269-1.50265-.601-2.07628-.2603-.56311.3346-.988159 1.0572-.783484 1.8782zm-2.85991 1.6181c.31973.3197.75338.4993 1.20554.4993v-3.4098c.45218 0 .88584.1796 1.20558.4993zm-.448777-.7931c-.263746-1.058.527217-2.1174 1.654317-2.1174v3.4098c1.12705 0 1.91798-1.0594 1.65424-2.1173z" fill="url(#g)" mask="url(#i)"/><circle cx="14.5794" cy="15.1458" fill="#161323" r="14.4388"/><circle cx="14.5829" cy="15.1454" fill="url(#h)" r="11.2235"/><circle cx="14.5829" cy="15.1454" fill="#ddc1a7" r="11.2235"/><path d="m11.5632 19.7197v-1.3513l3.4485-4.1993v-.0485h-3.3274v-1.8405h6.1512v1.4821l-3.1967 4.0686v.0484h3.313v1.8405z" fill="#141522"/></svg>

<svg width="66" height="61" viewBox="0 0 66 61" fill="none" xmlns="http://www.w3.org/2000/svg">
<circle cx="36.9474" cy="31.8527" r="26.9715" fill="#141522" stroke="url(#paint0_linear_3839_1669)" stroke-width="2.60808"/>
<circle cx="36.9506" cy="31.852" r="21.1615" fill="url(#paint1_linear_3839_1669)"/>
<circle cx="36.9506" cy="31.852" r="21.1615" fill="#131621"/>
<path d="M18.0069 21.1626C18.1077 21.1249 18.2086 21.0966 18.2544 21.0872C21.4176 20.3801 27.4138 19.2111 31.0262 19.5882C31.3196 19.6165 31.5855 19.409 31.6313 19.1168C31.7597 18.2777 32.0989 16.9484 32.3006 16.7598C32.4381 16.6372 32.6765 16.3733 33.2358 16.7598C33.7126 17.0898 35.7938 19.2016 36.4265 19.8522C36.5456 19.9747 36.7015 20.0313 36.8665 20.0124C37.3341 19.9653 38.3518 19.8993 39.0578 20.0407C39.993 20.2293 46.3743 23.8967 47.6946 25.4429C48.6939 26.6214 48.7123 27.5642 48.6664 27.9601C48.6481 28.0921 48.6756 28.2241 48.749 28.3373L51.7012 33.1643C51.7837 33.2963 51.8112 33.4566 51.7654 33.6075C51.6737 33.9846 51.4353 34.6822 50.9036 35.1348C50.7752 35.2385 50.6927 35.3988 50.6835 35.5685C50.6652 36.0776 50.5918 37.1241 50.3168 37.4163C50.0234 37.718 49.0699 38.5854 48.6389 38.9719C48.5106 39.0851 48.4464 39.2548 48.4556 39.4245C48.4831 40.0467 48.5106 41.5552 48.0613 41.8569C47.502 42.2434 44.3114 42.432 43.9355 41.8569L40.699 38.5571C39.4979 37.8312 38.1043 37.4163 36.619 37.4163C34.1985 37.4163 32.0256 38.51 30.5494 40.2447C30.3477 40.4427 30.1735 40.6595 30.0452 40.8858C30.036 40.8952 30.036 40.9047 30.0268 40.9141C29.0916 42.2717 28.5415 43.9216 28.5415 45.7034C28.5415 50.2854 32.1539 54 36.6098 54C48.4281 54 58 44.1478 58 32.0047C58 19.8616 48.4281 10 36.619 10C28.6332 10 21.6743 14.4971 18.0069 21.1626C17.9977 21.1626 17.9977 21.1626 18.0069 21.1626Z" fill="url(#paint2_linear_3839_1669)"/>
<path d="M18.0069 21.1626C18.1077 21.1249 18.2086 21.0966 18.2544 21.0872C21.4176 20.3801 27.4138 19.2111 31.0262 19.5882C31.3196 19.6165 31.5855 19.409 31.6313 19.1168C31.7597 18.2777 32.0989 16.9484 32.3006 16.7598C32.4381 16.6372 32.6765 16.3733 33.2358 16.7598C33.7126 17.0898 35.7938 19.2016 36.4265 19.8522C36.5456 19.9747 36.7015 20.0313 36.8665 20.0124C37.3341 19.9653 38.3518 19.8993 39.0578 20.0407C39.993 20.2293 46.3743 23.8967 47.6946 25.4429C48.6939 26.6214 48.7123 27.5642 48.6664 27.9601C48.6481 28.0921 48.6756 28.2241 48.749 28.3373L51.7012 33.1643C51.7837 33.2963 51.8112 33.4566 51.7654 33.6075C51.6737 33.9846 51.4353 34.6822 50.9036 35.1348C50.7752 35.2385 50.6927 35.3988 50.6835 35.5685C50.6652 36.0776 50.5918 37.1241 50.3168 37.4163C50.0234 37.718 49.0699 38.5854 48.6389 38.9719C48.5106 39.0851 48.4464 39.2548 48.4556 39.4245C48.4831 40.0467 48.5106 41.5552 48.0613 41.8569C47.502 42.2434 44.3114 42.432 43.9355 41.8569L40.699 38.5571C39.4979 37.8312 38.1043 37.4163 36.619 37.4163C34.1985 37.4163 32.0256 38.51 30.5494 40.2447C30.3477 40.4427 30.1735 40.6595 30.0452 40.8858C30.036 40.8952 30.036 40.9047 30.0268 40.9141C29.0916 42.2717 28.5415 43.9216 28.5415 45.7034C28.5415 50.2854 32.1539 54 36.6098 54C48.4281 54 58 44.1478 58 32.0047C58 19.8616 48.4281 10 36.619 10C28.6332 10 21.6743 14.4971 18.0069 21.1626C17.9977 21.1626 17.9977 21.1626 18.0069 21.1626Z" fill="url(#paint3_linear_3839_1669)" fill-opacity="0.2"/>
<mask id="path-4-outside-1_3839_1669" maskUnits="userSpaceOnUse" x="0.117188" y="0.605469" width="29" height="29" fill="black">
<rect fill="white" x="0.117188" y="0.605469" width="29" height="29"/>
<path d="M2.41422 18.1796C2.41419 18.1796 2.41418 18.1796 2.41418 18.1796C4.08908 24.8978 10.8935 28.9864 17.6125 27.3111C24.3287 25.6362 28.4172 18.8313 26.7416 12.1137C25.0675 5.39472 18.263 1.30585 11.5461 2.98072C4.82766 4.65559 0.739356 11.4611 2.41432 18.1796C2.41433 18.1796 2.41427 18.1796 2.41424 18.1796L2.41424 18.1796C2.41424 18.1796 2.41423 18.1796 2.41422 18.1796V18.1796Z"/>
</mask>
<path d="M2.41422 18.1796C2.41419 18.1796 2.41418 18.1796 2.41418 18.1796C4.08908 24.8978 10.8935 28.9864 17.6125 27.3111C24.3287 25.6362 28.4172 18.8313 26.7416 12.1137C25.0675 5.39472 18.263 1.30585 11.5461 2.98072C4.82766 4.65559 0.739356 11.4611 2.41432 18.1796C2.41433 18.1796 2.41427 18.1796 2.41424 18.1796L2.41424 18.1796C2.41424 18.1796 2.41423 18.1796 2.41422 18.1796V18.1796Z" fill="#121320"/>
<path d="M17.6125 27.3111L18.025 28.9653L18.025 28.9653L17.6125 27.3111ZM26.7416 12.1137L25.0874 12.5263L25.0873 12.5259L26.7416 12.1137ZM11.5461 2.98072L11.9586 4.63498L11.9585 4.63501L11.5461 2.98072ZM2.41432 18.1796L4.06859 17.7671L2.41432 18.1796ZM2.41424 18.1796L1.20869 19.3852L2.41424 18.1796ZM2.41424 18.1796L1.20868 19.3852L2.41424 18.1796ZM2.41418 18.1796L4.06846 17.7672L2.41418 18.1796ZM4.06846 17.7672C5.51555 23.5717 11.3946 27.1043 17.2 25.6568L18.025 28.9653C10.3924 30.8684 2.6626 26.224 0.759903 18.5921L4.06846 17.7672ZM17.2 25.6568C23.0024 24.2098 26.5351 18.3303 25.0874 12.5263L28.3958 11.701C30.2993 19.3323 25.6549 27.0626 18.025 28.9653L17.2 25.6568ZM25.0873 12.5259C23.6408 6.7206 17.7617 3.18798 11.9586 4.63498L11.1336 1.32646C18.7644 -0.576281 26.4942 4.06884 28.396 11.7014L25.0873 12.5259ZM11.9585 4.63501C6.15394 6.08205 2.62136 11.9621 4.06859 17.7671L0.760036 18.592C-1.14264 10.9601 3.50138 3.22913 11.1337 1.32644L11.9585 4.63501ZM1.20869 19.3852L1.20868 19.3852L3.6198 16.974L3.6198 16.9741L1.20869 19.3852ZM4.06859 17.7671C4.27328 18.5882 3.84821 19.3108 3.28507 19.6454C2.71141 19.9862 1.83555 20.012 1.20869 19.3852L3.6198 16.9741C2.99297 16.3472 2.11715 16.3731 1.54352 16.7138C0.98041 17.0484 0.555361 17.771 0.760036 18.592L4.06859 17.7671ZM1.20868 19.3852C1.52841 19.7049 1.96206 19.8845 2.41422 19.8845V16.4747C2.8664 16.4747 3.30006 16.6543 3.6198 16.974L1.20868 19.3852ZM0.759903 18.5921C0.496157 17.5341 1.28712 16.4747 2.41422 16.4747V19.8845C3.54127 19.8845 4.3322 18.8251 4.06846 17.7672L0.759903 18.5921Z" fill="url(#paint4_linear_3839_1669)" mask="url(#path-4-outside-1_3839_1669)"/>
<circle cx="14.5794" cy="15.1458" r="14.4388" fill="#161323"/>
<circle cx="14.5829" cy="15.1454" r="11.2235" fill="url(#paint5_linear_3839_1669)"/>
<circle cx="14.5829" cy="15.1454" r="11.2235" fill="#DDC1A7"/>
<path d="M11.5632 19.7197V18.3684L15.0117 14.1691V14.1206H11.6843V12.2801H17.8355V13.7622L14.6388 17.8308V17.8792H17.9518V19.7197H11.5632Z" fill="#141522"/>
<defs>
<linearGradient id="paint0_linear_3839_1669" x1="35.9135" y1="3.57714" x2="34.4505" y2="60.0636" gradientUnits="userSpaceOnUse">
<stop stop-color="#FFDFBD"/>
<stop offset="1" stop-color="#D0A7A8"/>
</linearGradient>
<linearGradient id="paint1_linear_3839_1669" x1="36.9506" y1="10.6904" x2="37.6539" y2="53.0135" gradientUnits="userSpaceOnUse">
<stop stop-color="#717B90"/>
<stop offset="0.854167" stop-color="#5F6779"/>
</linearGradient>
<linearGradient id="paint2_linear_3839_1669" x1="38" y1="10" x2="38.8043" y2="53.9975" gradientUnits="userSpaceOnUse">
<stop stop-color="#717B90"/>
<stop offset="0.854167" stop-color="#5F6779"/>
</linearGradient>
<linearGradient id="paint3_linear_3839_1669" x1="38" y1="10" x2="38" y2="54" gradientUnits="userSpaceOnUse">
<stop stop-color="white"/>
<stop offset="1" stop-color="white" stop-opacity="0"/>
</linearGradient>
<linearGradient id="paint4_linear_3839_1669" x1="27.1172" y1="2.60547" x2="2.08792" y2="3.71209" gradientUnits="userSpaceOnUse">
<stop stop-color="#FFDFBD"/>
<stop offset="1" stop-color="#D0A7A8"/>
</linearGradient>
<linearGradient id="paint5_linear_3839_1669" x1="14.5829" y1="3.92188" x2="14.9559" y2="26.3689" gradientUnits="userSpaceOnUse">
<stop stop-color="#717B90"/>
<stop offset="0.854167" stop-color="#5F6779"/>
</linearGradient>
</defs>
</svg>
